fs/text_font_info_20_regular.svg

<svg viewBox="0 0 20 20" fill="none" xmlns="http://www.w3.org/2000/svg" height="1em" width="1em">
  <path d="M7.95657 3.83574C7.8875 3.63714 7.70155 3.50299 7.49131 3.50005C7.28106 3.49711 7.09144 3.62603 7.01685 3.82262L4.29341 11H4.27297V11.0539L3.03266 14.3226C2.93469 14.5808 3.06457 14.8695 3.32275 14.9675C3.58093 15.0654 3.86965 14.9356 3.96761 14.6774L4.98354 12L8.20703 12C8.30564 11.6514 8.43777 11.3168 8.59971 11L5.36298 11L7.46389 5.46323L9.10772 10.1892C9.33568 9.88727 9.59405 9.60957 9.87829 9.36067L7.95657 3.83574ZM13.5 10.875C13.1548 10.875 12.875 11.1548 12.875 11.5C12.875 11.8452 13.1548 12.125 13.5 12.125C13.8452 12.125 14.125 11.8452 14.125 11.5C14.125 11.1548 13.8452 10.875 13.5 10.875ZM13.5 16C13.7761 16 14 15.7761 14 15.5V13.5C14 13.2239 13.7761 13 13.5 13C13.2239 13 13 13.2239 13 13.5V15.5C13 15.7761 13.2239 16 13.5 16ZM13.5 9C11.0147 9 9 11.0147 9 13.5C9 15.9853 11.0147 18 13.5 18C15.9853 18 18 15.9853 18 13.5C18 11.0147 15.9853 9 13.5 9ZM13.5 17C11.567 17 10 15.433 10 13.5C10 11.567 11.567 10 13.5 10C15.433 10 17 11.567 17 13.5C17 15.433 15.433 17 13.5 17Z" fill="#212121"/>
</svg>

<svg viewBox="0 0 20 20" fill="none" xmlns="http://www.w3.org/2000/svg" height="1em" width="1em">
  <path d="M7.957 3.836a.5.5 0 0 0-.94-.013L4.293 11h-.02v.054l-1.24 3.269a.5.5 0 0 0 .935.354L4.984 12h3.223c.099-.349.23-.683.393-1H5.363l2.1-5.537 1.645 4.726c.228-.302.486-.58.77-.828L7.957 3.836Zm5.543 7.039a.625.625 0 1 0 0 1.25.625.625 0 0 0 0-1.25Zm0 5.125a.5.5 0 0 0 .5-.5v-2a.5.5 0 0 0-1 0v2a.5.5 0 0 0 .5.5Zm0-7a4.5 4.5 0 1 0 0 9 4.5 4.5 0 0 0 0-9Zm0 8a3.5 3.5 0 1 1 0-7 3.5 3.5 0 0 1 0 7Z" fill="#212121"/>
</svg>
